X: 2
T: Flute Melody No 2
N: Derived from Flute_Melody_No_2.krn
%%abc-version 2.0
%%abcx-abcm2ps-target-version 5.9.1 (29 Sep 2008)
%%abc-creator hum2abc beta
%%abcx-conversion-date 2019/03/15 08:35:44
%%humdrum-veritas 649293162
%%humdrum-veritas-data 1320247831
%%linebreak <none>
%%barnumbers 0
L: 1/4
M: 3/4
K: A clef=treble
[K:clef=treble][M:3/4]A3 ||  
[M:2/4]A2 ||  
[M:3/4]A3/z/ a3//e// | 
a2f/ z/ | 
e2a ||  
[M:2/4]e3/f//e// | 
de ||  
[M:3/4]d2B | 
A3- | 
A2z ||  
[M:2/4]A2 | 
e2 | 
dB | 
A2- | 
A2 |]  



